src/svg/publication.svg

<svg width="30" height="32" viewBox="0 0 30 32" fill="none" xmlns="http://www.w3.org/2000/svg">
<path d="M26.5 13.5H18.5V21.5H26.5V13.5Z" fill="black"/>
<path d="M26 14V21H19V14H26ZM27 13H18V22H27V13Z" fill="black"/>
<path d="M29 1V29.06H17.05C16.3152 29.0534 15.6035 29.3167 15.05 29.8V1.94C15.0653 1.68532 15.1774 1.44612 15.3633 1.27137C15.5492 1.09662 15.7949 0.999541 16.05 1H29ZM30 2.0286e-07H16.05C15.5298 -0.000233938 15.03 0.202224 14.6566 0.564417C14.2832 0.926609 14.0656 1.42004 14.05 1.94V32H15.05C15.0489 31.7419 15.1007 31.4863 15.2021 31.2489C15.3036 31.0116 15.4526 30.7975 15.64 30.62C16.0157 30.2578 16.5181 30.0569 17.04 30.06H30V2.0286e-07Z" fill="black"/>
<path d="M13.12 1C13.2395 1.00388 13.3571 1.03127 13.466 1.08062C13.575 1.12997 13.6731 1.20031 13.7548 1.28761C13.8366 1.37491 13.9003 1.47746 13.9423 1.5894C13.9844 1.70134 14.004 1.82048 14 1.94V29.72C13.4946 29.2913 12.8527 29.0572 12.19 29.06H1V1H13.12ZM13.12 0H0V30.06H12.19C12.4363 30.0602 12.6801 30.1099 12.9068 30.2061C13.1335 30.3023 13.3387 30.4431 13.51 30.62C13.6883 30.8023 13.8287 31.0181 13.9231 31.255C14.0175 31.4918 14.064 31.745 14.06 32H15V1.94C15.004 1.68917 14.9585 1.44001 14.8662 1.20676C14.7738 0.973502 14.6364 0.760723 14.4619 0.580571C14.2873 0.400419 14.0789 0.256424 13.8487 0.156808C13.6184 0.0571926 13.3708 0.00390885 13.12 0V0Z" fill="black"/>
<path d="M22 5.5H27" stroke="black" stroke-miterlimit="10"/>
<path d="M3 13.5H12" stroke="black" stroke-miterlimit="10"/>
<path d="M3 9.5H10" stroke="black" stroke-miterlimit="10"/>
<path d="M3 5.5H8" stroke="black" stroke-miterlimit="10"/>
<path d="M18 9.5H27" stroke="black" stroke-miterlimit="10"/>
<path d="M3 17.5H12" stroke="black" stroke-miterlimit="10"/>
<path d="M3 21.5H12" stroke="black" stroke-miterlimit="10"/>
<path d="M3 25.5H12" stroke="black" stroke-miterlimit="10"/>
<path d="M18 25.5H27" stroke="black" stroke-miterlimit="10"/>
</svg>

<svg xmlns="http://www.w3.org/2000/svg" viewBox="0 0 30 32" fill="currentColor">
  <path d="M26.5 13.5h-8v8h8v-8z"/>
  <path d="M26 14v7h-7v-7h7zm1-1h-9v9h9v-9z"/>
  <path d="M29 1v28.06H17.05a3 3 0 00-2 .74V1.94a1 1 0 011-.94H29zm1-1H16.05a2 2 0 00-2 1.94V32h1a1.9 1.9 0 01.59-1.38 2 2 0 011.4-.56H30V0z"/>
  <path d="M13.12 1a.91.91 0 01.88.94v27.78a2.78 2.78 0 00-1.81-.66H1V1h12.12zm0-1H0v30.06h12.19a1.84 1.84 0 011.32.56 1.93 1.93 0 01.55 1.38H15V1.94A1.91 1.91 0 0013.12 0z"/>
  <path d="M22 5.5h5M3 13.5h9M3 9.5h7M3 5.5h5M18 9.5h9M3 17.5h9M3 21.5h9M3 25.5h9M18 25.5h9" stroke="currentColor" stroke-miterlimit="10"/>
</svg>
